svg/device/panoramas_line.svg

<?xml version="1.0" encoding="UTF-8"?>
<svg width="24px" height="24px" viewBox="0 0 24 24" version="1.1" xmlns="http://www.w3.org/2000/svg" xmlns:xlink="http://www.w3.org/1999/xlink">
    <title>panoramas_line</title>
    <g id="Icon" stroke="none" stroke-width="1" fill="none" fill-rule="evenodd">
        <g id="Device" transform="translate(-432.000000, -384.000000)">
            <g id="panoramas_line" transform="translate(432.000000, 384.000000)">
                <path d="M24,0 L24,24 L0,24 L0,0 L24,0 Z M12.5935,23.2578 L12.5819,23.2595 L12.5109,23.295 L12.4919,23.2987 L12.4767,23.295 L12.4057,23.2595 C12.3958,23.2564 12.387,23.259 12.3821,23.2649 L12.378,23.2758 L12.3609,23.7031 L12.3659,23.7235 L12.3769,23.7357 L12.4805,23.8097 L12.4953,23.8136 L12.5071,23.8097 L12.6107,23.7357 L12.6233,23.7197 L12.6267,23.7031 L12.6096,23.2758 C12.6076,23.2657 12.601,23.2593 12.5935,23.2578 Z M12.8584,23.1453 L12.8445,23.1473 L12.6598,23.2397 L12.6499,23.2499 L12.6472,23.2611 L12.6651,23.6906 L12.6699,23.7034 L12.6784,23.7105 L12.8793,23.8032 C12.8914,23.8069 12.9022,23.803 12.9078,23.7952 L12.9118,23.7812 L12.8777,23.1665 C12.8753,23.1546 12.8674,23.147 12.8584,23.1453 Z M12.143,23.1473 C12.1332,23.1424 12.1222,23.1453 12.1156,23.1526 L12.1099,23.1665 L12.0758,23.7812 C12.0751,23.7927 12.0828,23.8019 12.0926,23.8046 L12.1083,23.8032 L12.3092,23.7105 L12.3186,23.7024 L12.3225,23.6906 L12.3404,23.2611 L12.3372,23.2485 L12.3278,23.2397 L12.143,23.1473 Z" id="MingCute" fill-rule="nonzero"></path>
                <path d="M4,7.50356 L4,16.4966 C5.65265,15.8791 8.59877,15.0001 12,15.0001 C15.4012,15.0001 18.3473,15.8791 20,16.4966 L20,7.50356 C18.3473,8.12105 15.4012,9.00008 12,9.00008 C8.59877,9.00008 5.65265,8.12105 4,7.50356 Z M2,6.80909 C2,5.68926 3.15081,5.00411 4.11857,5.40221 C5.43698,5.94456 8.46487,7.00008 12,7.00008 C15.5351,7.00008 18.563,5.94456 19.8814,5.40221 C20.8492,5.00411 22,5.68926 22,6.80909 L22,17.1911 C22,18.3109 20.8492,18.996 19.8814,18.5979 C18.563,18.0556 15.5351,17.0001 12,17.0001 C8.46487,17.0001 5.43698,18.0556 4.11857,18.5979 C3.15081,18.996 2,18.3109 2,17.1911 L2,6.80909 Z" id="形状" fill="#09244B"></path>
            </g>
        </g>
    </g>
</svg>

<svg xmlns="http://www.w3.org/2000/svg" width="24" height="24"><g fill="none" fill-rule="evenodd"><path d="M24 0v24H0V0h24ZM12.594 23.258l-.012.002-.071.035-.02.004-.014-.004-.071-.036c-.01-.003-.019 0-.024.006l-.004.01-.017.428.005.02.01.013.104.074.015.004.012-.004.104-.074.012-.016.004-.017-.017-.427c-.002-.01-.009-.017-.016-.018Zm.264-.113-.014.002-.184.093-.01.01-.003.011.018.43.005.012.008.008.201.092c.012.004.023 0 .029-.008l.004-.014-.034-.614c-.003-.012-.01-.02-.02-.022Zm-.715.002a.023.023 0 0 0-.027.006l-.006.014-.034.614c0 .012.007.02.017.024l.015-.002.201-.093.01-.008.003-.011.018-.43-.003-.012-.01-.01-.184-.092Z"/><path fill="#09244B" d="M4 7.504v8.993C5.653 15.879 8.599 15 12 15s6.347.88 8 1.497V7.504C18.347 8.12 15.401 9 12 9s-6.347-.879-8-1.496Zm-2-.695c0-1.12 1.15-1.805 2.119-1.407C5.437 5.945 8.465 7 12 7s6.563-1.055 7.881-1.598C20.85 5.004 22 5.69 22 6.81v10.382c0 1.12-1.15 1.805-2.119 1.407C18.563 18.056 15.535 17 12 17s-6.563 1.056-7.881 1.598C3.15 18.996 2 18.31 2 17.19V6.81Z"/></g></svg>
